img/arrow-link.svg

<svg width="71" height="70" viewBox="0 0 71 70" fill="none" xmlns="http://www.w3.org/2000/svg">
<path fill-rule="evenodd" clip-rule="evenodd" d="M50.26 55.8339L50.2605 18.851L56.823 18.8511L56.8225 55.834L50.26 55.8339Z" fill="#4CCEAC"/>
<path fill-rule="evenodd" clip-rule="evenodd" d="M19.843 49.2722L56.8259 49.2717L56.826 55.8342L19.8431 55.8347L19.843 49.2722Z" fill="#4CCEAC"/>
<path fill-rule="evenodd" clip-rule="evenodd" d="M17.0346 11.3976L55.8693 50.2322L51.2289 54.8726L12.3943 16.0379L17.0346 11.3976Z" fill="#4CCEAC"/>
</svg>

<svg width="71" height="70" fill="none" xmlns="http://www.w3.org/2000/svg"><path fill-rule="evenodd" clip-rule="evenodd" d="M50.26 55.834V18.85h6.563v36.983H50.26Z" fill="#4CCEAC"/><path fill-rule="evenodd" clip-rule="evenodd" d="M19.843 49.272h36.983v6.562H19.843v-6.562Z" fill="#4CCEAC"/><path fill-rule="evenodd" clip-rule="evenodd" d="m17.035 11.398 38.834 38.834-4.64 4.64-38.835-38.834 4.64-4.64Z" fill="#4CCEAC"/></svg>
